assets/Logo/MB--Logo--CombV-Circle--Black.svg

<svg height="880" viewBox="0 0 880 880" width="880" xmlns="http://www.w3.org/2000/svg"><g fill="none" fill-rule="evenodd"><g transform="translate(140 30)"><circle cx="300" cy="300" fill="#000" r="300"/><path d="m480 230v100h-300v.001l-12.907363.000293c13.6612 60.675936 67.877706 105.998707 132.679911 105.998707 53.574191 0 99.91317-30.977625 122.082198-75.998136l58.145254-.000864v83.999c0 19.882251-16.117749 36-36 36h-288c-19.882251 0-36-16.117749-36-36v-214zm-92.673507 130.00167c-19.091757 27.912627-51.183733 46.229933-87.553945 46.229933s-68.462188-18.317306-87.553945-46.229933zm-164.326493-106.00167c-28.211891 0-51.551244 20.861818-55.432937 48.000334l30.686759.000209c3.374064-10.445337 13.177814-18.000543 24.746178-18.000543s21.372114 7.555206 24.746178 18.000543l30.686759-.000209c-3.881693-27.138516-27.221046-48.000334-55.432937-48.000334zm154 0c-28.211891 0-51.551244 20.861818-55.432937 48.000334l30.686759.000209c3.374064-10.445337 13.177814-18.000543 24.746178-18.000543s21.372114 7.555206 24.746178 18.000543l30.686759-.000209c-3.881693-27.138516-27.221046-48.000334-55.432937-48.000334zm67-134c19.882251 0 36 16.117749 36 36v44h-360v-44c0-19.882251 16.117749-36 36-36z" fill="#fff"/></g><path d="m536.856531 758c24.481799 0 52.291221 9.512671 53.955032 39.953216h-34.226981c-.713062-8.79922-8.794432-12.842105-19.490364-12.842105-9.982869 0-14.498929 3.805068-14.498929 8.323587 0 3.805068 2.852248 7.37232 11.884368 9.037037l21.629551 3.567251c21.62955 4.042885 35.890792 14.506823 35.890792 34.959065 0 26.635477-24.006424 39.001949-53.955032 39.001949-30.186296 0-54.668094-12.604288-57.044968-43.282651l34.226981.237817c1.663811 9.988304 9.982869 14.506822 22.104925 14.506822 10.220557 0 16.400428-3.091618 16.400428-8.08577 0-3.805068-3.56531-6.896686-11.171306-8.08577l-23.293362-4.042885c-19.965739-3.329434-33.751606-14.506822-33.751606-34.721247 0-24.25731 20.678801-38.526316 51.340471-38.526316zm-143.753919 1c12.557836 0 22.983209 3.320158 31.51306 8.774704v-6.166008h38.384328v115.019762h-38.384328v-6.403162c-8.529851 5.454546-18.955224 8.774704-31.51306 8.774704-31.039179 0-57.102612-25.849802-57.102612-60 0-34.387352 26.063433-60 57.102612-60zm-224.470459-44 57.367847 85.945588 57.13079-85.945588h29.86921v161h-40.06267v-80.736765l-35.795641 55.166177v.236764h-22.283378v-.236764l-36.032698-55.639706.237057 81.210294h-40.06267v-161zm482.767847-7v96.304225l40.059259-43.064788h45.748148l-43.614814 46.850704 47.407407 67.909859h-45.985185l-27.496296-39.752113-16.118519 17.27324v22.478873h-38.4v-168zm-250.715299 82.304348c-15.638059 0-27.011194 12.806324-27.011194 28.695652s11.373135 28.458498 27.011194 28.458498c8.529851 0 16.822762-2.371541 23.930971-10.671937v-35.573122c-7.108209-8.300396-15.40112-10.909091-23.930971-10.909091z" fill="#000" fill-rule="nonzero"/></g></svg>

<?xml version="1.0" encoding="UTF-8"?>
<svg width="880px" height="880px" viewBox="0 0 880 880" version="1.1" xmlns="http://www.w3.org/2000/svg" xmlns:xlink="http://www.w3.org/1999/xlink">
    <title>MB--Logo--CombV-Circle--Black</title>
    <g id="MB--Logo--CombV-Circle--Black" stroke="none" stroke-width="1" fill="none" fill-rule="evenodd">
        <g id="Group" transform="translate(140.000000, 30.000000)">
            <circle id="Oval" fill="#000000" cx="300" cy="300" r="300"></circle>
            <path d="M480,230 L480,330 L180,330 L180,330.001 L167.092637,330.001293 C180.753837,390.677229 234.970343,436 299.772548,436 C353.346739,436 399.685718,405.022375 421.854746,360.001864 L421.854746,360.001864 L480,360.001 L480,444 C480,463.882251 463.882251,480 444,480 L156,480 C136.117749,480 120,463.882251 120,444 L120,230 L480,230 Z M387.326493,360.00167 C368.234736,387.914297 336.14276,406.231603 299.772548,406.231603 C263.402336,406.231603 231.31036,387.914297 212.218603,360.00167 L212.218603,360.00167 Z M223,254 C194.788109,254 171.448756,274.861818 167.567063,302.000334 L167.567063,302.000334 L198.253822,302.000543 C201.627886,291.555206 211.431636,284 223,284 C234.568364,284 244.372114,291.555206 247.746178,302.000543 L247.746178,302.000543 L278.432937,302.000334 C274.551244,274.861818 251.211891,254 223,254 Z M377,254 C348.788109,254 325.448756,274.861818 321.567063,302.000334 L321.567063,302.000334 L352.253822,302.000543 C355.627886,291.555206 365.431636,284 377,284 C388.568364,284 398.372114,291.555206 401.746178,302.000543 L401.746178,302.000543 L432.432937,302.000334 C428.551244,274.861818 405.211891,254 377,254 Z M444,120 C463.882251,120 480,136.117749 480,156 L480,200 L120,200 L120,156 C120,136.117749 136.117749,120 156,120 L444,120 Z" id="mask-icon--book--black" fill="#FFFFFF"></path>
        </g>
        <path d="M536.856531,758 C561.33833,758 589.147752,767.512671 590.811563,797.953216 L556.584582,797.953216 C555.87152,789.153996 547.79015,785.111111 537.094218,785.111111 C527.111349,785.111111 522.595289,788.916179 522.595289,793.434698 C522.595289,797.239766 525.447537,800.807018 534.479657,802.471735 L556.109208,806.038986 C577.738758,810.081871 592,820.545809 592,840.998051 C592,867.633528 567.993576,880 538.044968,880 C507.858672,880 483.376874,867.395712 481,836.717349 L515.226981,836.955166 C516.890792,846.94347 525.20985,851.461988 537.331906,851.461988 C547.552463,851.461988 553.732334,848.37037 553.732334,843.376218 C553.732334,839.57115 550.167024,836.479532 542.561028,835.290448 L519.267666,831.247563 C499.301927,827.918129 485.51606,816.740741 485.51606,796.526316 C485.51606,772.269006 506.194861,758 536.856531,758 Z M393.102612,759 C405.660448,759 416.085821,762.320158 424.615672,767.774704 L424.615672,761.608696 L463,761.608696 L463,876.628458 L424.615672,876.628458 L424.615672,870.225296 C416.085821,875.679842 405.660448,879 393.102612,879 C362.063433,879 336,853.150198 336,819 C336,784.612648 362.063433,759 393.102612,759 Z M168.632153,715 L226,800.945588 L283.13079,715 L313,715 L313,876 L272.93733,876 L272.93733,795.263235 L237.141689,850.429412 L237.141689,850.666176 L214.858311,850.666176 L214.858311,850.429412 L178.825613,794.789706 L179.06267,876 L139,876 L139,715 L168.632153,715 Z M651.4,708 L651.4,804.304225 L691.459259,761.239437 L737.207407,761.239437 L693.592593,808.090141 L741,876 L695.014815,876 L667.518519,836.247887 L651.4,853.521127 L651.4,876 L613,876 L613,708 L651.4,708 Z M400.684701,790.304348 C385.046642,790.304348 373.673507,803.110672 373.673507,819 C373.673507,834.889328 385.046642,847.458498 400.684701,847.458498 C409.214552,847.458498 417.507463,845.086957 424.615672,836.786561 L424.615672,801.213439 C417.507463,792.913043 409.214552,790.304348 400.684701,790.304348 Z" id="形状结合" fill="#000000" fill-rule="nonzero"></path>
    </g>
</svg>
